X: 92
T:Crowley's Reel No. 2
M:C|
L:1/8
R:Reel
K:D
f2df edBc|dBBA BAFA|~B3d AFDE|FEED E2de|!
f2df edBc|dBBA BAFA|~B3d A2FD|EFGE FDDF|]!
Addc dAFA|BABd cA~A2|BGAF GEFD|EFGE FDDF|!
Addc dAFA|BABd cA~A2|BGAF GEFD|EFGE FDDe|]!

